X:31
T:Ffidl Ffadl
Z:brian_martin12345@yahoo.com
R:polka
M:2/4
L:1/8
K:G
G>A BG|cB cA|G>A BG|FA FD|G>A BG|cB cA|Bd c/B/A/G/|FA FD::
Ec c>G|Ec GE|F/A/d d>A|Fd AF|Ec c>G|Ec GE|Bd c/B/A/G/|FA FD:|
